static/assets/img/icons/theme/food/fish.svg

<svg height="24" viewBox="0 0 24 24" width="24" xmlns="http://www.w3.org/2000/svg"><g fill="none" fill-rule="evenodd"><path d="m0 0h24v24h-24z" opacity="0"/><g fill="#000"><path d="m7.22298453 10.4937704c.22349501-.0013466.44705339.0102241.66945921.0347123.06163967.5598217.04143603 1.1269459-.06061089 1.6819805.10204692.5550347.12225056 1.1221588.06061089 1.6819805-.22240582.0244882-.4459642.036059-.66945921.0347123-.25743662.4707613-.58544948.9132008-.98403859 1.3117899-1.28717838 1.2871784-3.03165628 1.8383444-4.71046323 1.6534978-.18348663-1.6664562.35824958-3.3976207 1.62520864-4.6819805-1.26695906-1.2843598-1.80869527-3.01552424-1.62520864-4.68198049 1.67880695-.18484651 3.42328485.36631942 4.71046323 1.65349781.39858911.3985891.72660197.84102868.98403859 1.31178988z" opacity=".3"/><path d="m14 6c3.8133397 0 7.2112391 3.14927651 9.4092875 6.5952475-2.1980484 3.255476-5.5959478 6.4047525-9.4092875 6.4047525s-7.2112391-3.1492765-9.40928749-6.4047525c2.19804839-3.44597099 5.59594779-6.5952475 9.40928749-6.5952475zm6 7c.5522847 0 1-.4477153 1-1s-.4477153-1-1-1-1 .4477153-1 1 .4477153 1 1 1z"/></g></g></svg>

<svg width="24px" height="24px" viewBox="0 0 24 24" version="1.1" xmlns="http://www.w3.org/2000/svg" xmlns:xlink="http://www.w3.org/1999/xlink">
    <title>Icon For Fish</title>
    <g stroke="none" stroke-width="1" fill="none" fill-rule="evenodd">
        <rect opacity="0" x="0" y="0" width="24" height="24"></rect>
        <path d="M7.22298453,10.4937704 C7.44647954,10.4924238 7.67003792,10.5039945 7.89244374,10.5284827 C7.95408341,11.0883044 7.93387977,11.6554286 7.83183285,12.2104632 C7.93387977,12.7654979 7.95408341,13.332622 7.89244374,13.8924437 C7.67003792,13.9169319 7.44647954,13.9285027 7.22298453,13.927156 C6.96554791,14.3979173 6.63753505,14.8403568 6.23894594,15.2389459 C4.95176756,16.5261243 3.20728966,17.0772903 1.52848271,16.8924437 C1.34499608,15.2259875 1.88673229,13.494823 3.15369135,12.2104632 C1.88673229,10.9261034 1.34499608,9.19493896 1.52848271,7.52848271 C3.20728966,7.3436362 4.95176756,7.89480213 6.23894594,9.18198052 C6.63753505,9.58056962 6.96554791,10.0230092 7.22298453,10.4937704 Z" fill="#000000" opacity="0.3"></path>
        <path d="M14,6 C17.8133397,6 21.2112391,9.14927651 23.4092875,12.5952475 C21.2112391,15.8507235 17.8133397,19 14,19 C10.1866603,19 6.7887609,15.8507235 4.59071251,12.5952475 C6.7887609,9.14927651 10.1866603,6 14,6 Z M20,13 C20.5522847,13 21,12.5522847 21,12 C21,11.4477153 20.5522847,11 20,11 C19.4477153,11 19,11.4477153 19,12 C19,12.5522847 19.4477153,13 20,13 Z" fill="#000000"></path>
    </g>
</svg>
